src/Assets/headphone.svg

<svg width="24" height="24" viewBox="0 0 24 24" fill="none" xmlns="http://www.w3.org/2000/svg">
<path d="M0 6C0 2.68629 2.68629 0 6 0H18C21.3137 0 24 2.68629 24 6V18C24 21.3137 21.3137 24 18 24H6C2.68629 24 0 21.3137 0 18V6Z" fill="#D99E20" fill-opacity="0.2"/>
<path d="M5.06188 16.9876C4.75438 16.9876 4.49938 16.7326 4.49938 16.4251V12.1501C4.46188 10.1176 5.21938 8.1976 6.62938 6.7576C8.03938 5.3251 9.92937 4.5376 11.9619 4.5376C16.1169 4.5376 19.4994 7.9201 19.4994 12.0751V16.3501C19.4994 16.6576 19.2444 16.9126 18.9369 16.9126C18.6294 16.9126 18.3744 16.6576 18.3744 16.3501V12.0751C18.3744 8.5426 15.5019 5.6626 11.9619 5.6626C10.2294 5.6626 8.62438 6.3301 7.43188 7.5451C6.23188 8.7676 5.59438 10.3951 5.62438 12.1351V16.4176C5.62438 16.7326 5.37688 16.9876 5.06188 16.9876Z" fill="#D99E20"/>
<path d="M7.455 12.3374H7.3575C5.7825 12.3374 4.5 13.6199 4.5 15.1949V16.6049C4.5 18.1799 5.7825 19.4624 7.3575 19.4624H7.455C9.03 19.4624 10.3125 18.1799 10.3125 16.6049V15.1949C10.3125 13.6199 9.03 12.3374 7.455 12.3374Z" fill="#D99E20"/>
<path d="M16.6425 12.3374H16.545C14.97 12.3374 13.6875 13.6199 13.6875 15.1949V16.6049C13.6875 18.1799 14.97 19.4624 16.545 19.4624H16.6425C18.2175 19.4624 19.5 18.1799 19.5 16.6049V15.1949C19.5 13.6199 18.2175 12.3374 16.6425 12.3374Z" fill="#D99E20"/>
</svg>

<svg xmlns="http://www.w3.org/2000/svg" width="24" height="24" fill="none"><path fill="#D99E20" fill-opacity=".2" d="M0 6a6 6 0 0 1 6-6h12a6 6 0 0 1 6 6v12a6 6 0 0 1-6 6H6a6 6 0 0 1-6-6z"/><path fill="#D99E20" d="M5.062 16.988a.567.567 0 0 1-.563-.563V12.15a7.46 7.46 0 0 1 2.13-5.392 7.41 7.41 0 0 1 5.333-2.22c4.155 0 7.537 3.382 7.537 7.537v4.275a.567.567 0 0 1-.562.563.567.567 0 0 1-.563-.563v-4.275a6.42 6.42 0 0 0-6.412-6.412c-1.733 0-3.338.667-4.53 1.882-1.2 1.223-1.838 2.85-1.808 4.59v4.283c0 .315-.247.57-.562.57"/><path fill="#D99E20" d="M7.455 12.337h-.098A2.86 2.86 0 0 0 4.5 15.195v1.41a2.86 2.86 0 0 0 2.858 2.857h.097a2.86 2.86 0 0 0 2.858-2.857v-1.41a2.86 2.86 0 0 0-2.858-2.858M16.643 12.337h-.098a2.86 2.86 0 0 0-2.858 2.858v1.41a2.86 2.86 0 0 0 2.858 2.857h.097a2.86 2.86 0 0 0 2.858-2.857v-1.41a2.86 2.86 0 0 0-2.858-2.858"/></svg>
